X:15
T:Happy Meeting Cotillion
T:to the tune of Juliana
C:from Riley's Flute Melodies
M:6/8
K:G
L:1/8
P:Intro
"G"ded g2b|baf g2B|d2e dBG|"D"cAF "G"G2 G||
P:A
|:"G"DED G2B|BAF GBc|d2e dcB|"D"cBc A2D|
"G"DED G2B|"D"cAF "G"GBd|"C"cge "G"dBG|"D7"cAF "G"G2G:|
P:B
|:"D"A2d edc|"G"Bdc BAG|"D"Add d^cd|"G"BdB GBd|
"C"ecg gec|"G"dBg gdB|"C"ecA "G"dBG|"D7"FGA D2d:|
P:C
|:"G"B2A c2B|BAG "C"E2G|"G"D2G A2B|dcB "D7"ABc|
"G"B2A c2B|BAG "C"E2G|"G"D2B dcB|"D7"A3 "G"G3:|
